dist/static/img/general/geomarker.svg

<svg fill="none" height="27" viewBox="0 0 19 27" width="19" xmlns="http://www.w3.org/2000/svg"><path d="m9.5 14.2644c-2.61916 0-4.79439-2.1707-4.79439-4.78435 0-2.61366 2.17523-4.78432 4.79439-4.78432 2.6192 0 4.7944 2.17066 4.7944 4.78432 0 2.61365-2.1752 4.78435-4.7944 4.78435zm9.5-4.78435c0-5.22732-4.2617-9.48005-9.5-9.48005-5.23832 0-9.5 4.25273-9.5 9.48005 0 6.46765 8.47897 15.99205 8.8785 16.39075.31075.3987.93225.3987 1.243 0 .3551-.3987 8.8785-9.8788 8.8785-16.39075z" fill="#ff8c76"/></svg>

<svg width="19" height="27" viewBox="0 0 19 27" fill="none" xmlns="http://www.w3.org/2000/svg">
<path d="M9.5 14.2644C6.88084 14.2644 4.70561 12.0937 4.70561 9.48005C4.70561 6.86639 6.88084 4.69573 9.5 4.69573C12.1192 4.69573 14.2944 6.86639 14.2944 9.48005C14.2944 12.0937 12.1192 14.2644 9.5 14.2644ZM19 9.48005C19 4.25273 14.7383 0 9.5 0C4.26168 0 0 4.25273 0 9.48005C0 15.9477 8.47897 25.4721 8.8785 25.8708C9.18925 26.2695 9.81075 26.2695 10.1215 25.8708C10.4766 25.4721 19 15.992 19 9.48005Z" fill="#FF8C76"/>
</svg>
